X: 351
%
U:~=!turn!
T: Lord Ramsay
C:G. Robertson
O:Scotland
B:Keith Norman MacDonald : "The Skye collection of the best reels & strathspeys extant" : 1887
Z:Ralph Palmer
R:Reel
M:C
L:1/8
K:G
d | BG (B/c/d) g2 dc | BG (B/c/d) cAAc | BG (B/c/d) gdec | BGAF G2 G :| D | (B,/A,/G,) DG, GG,DG, | B,/A,/G, DB, CA,A,C |
(B,/A,/G,) DB, (GD)Ec | BGAF G2 GD | (B,/A,/G,) DG, GG,DG, | (B,/A,/G,) DB, CA,A,C | B,/C/D GD (E/F/G) ce | dBcA G2 G |]


